**kern
*staff1
*tb16
=1-
*clefG2
*k[b-e-]
*M4/4
1r
.
.
.
.
.
.
.
.
.
.
.
.
.
.
.
=2
1r
.
.
.
.
.
.
.
.
.
.
.
.
.
.
.
=3
2r
.
.
.
.
.
.
.
4r
.
.
.
4g/
.
.
.
=4
4.g/
.
.
.
.
.
8a/
.
4b-\
.
.
.
4g/
.
.
.
=5
!!linebreak:original
4.g/
.
.
.
.
.
8a/
.
4b-\
.
.
.
4g/
.
.
.
=6
4a/
.
.
.
4b-\
.
.
.
4cc\
.
.
.
8a/L
.
8b-/J
.
=7
4b-\
.
.
.
4r
.
.
.
4r
.
.
.
4b-\
.
.
.
=8
4.b-\
.
.
.
.
.
8cc\
.
4dd\
.
.
.
4b-\
.
.
.
=9
4.b-\
.
.
.
.
.
8cc\
.
4dd\
.
.
.
4cc\
.
.
.
=10
!!linebreak:original
4b-\
.
.
.
8cc\L
.
8b-\J
.
4a/
.
.
.
8b-/L
.
8a/J
.
=11
4g/
.
.
.
4r
.
.
.
2r
.
.
.
.
.
.
.
=12
1r
.
.
.
.
.
.
.
.
.
.
.
.
.
.
.
=13
2r
.
.
.
.
.
.
.
4r
.
.
.
4dd\
.
.
.
=14
!!linebreak:original
4.cc#\
.
.
.
.
.
8bn\
.
4a/
.
.
.
4ccn\
.
.
.
=15
4.bn\
.
.
.
.
.
8a/
.
4g/
.
.
.
4b-\
.
.
.
=16
4a/
.
.
.
8dd\L
.
8cc#\J
.
4cc#\
.
.
.
8een\L
.
8dd\J
.
=17
4dd\
.
.
.
4r
.
.
.
4r
.
.
.
4dd\
.
.
.
=18
!!linebreak:original
4.cc\
.
.
.
.
.
8b-\
.
4a/
.
.
.
4cc\
.
.
.
=19
4.b-\
.
.
.
.
.
8a/
.
4g/
.
.
.
4b-\
.
.
.
=20
4a/
.
.
.
8b-/L
.
8a/J
.
4g/
.
.
.
8a/L
.
8g/J
.
=21
4d/
.
.
.
4r
.
.
.
4r
.
.
.
4g/
.
.
.
=22
4.g/
.
.
.
.
.
8a/
.
4b-\
.
.
.
4g/
.
.
.
=23
!!linebreak:original
*clefG1
4.b-/
.
.
.
.
.
8cc/
.
4dd\
.
.
.
4b-/
.
.
.
=24
4cc/
.
.
.
4dd\
.
.
.
4ee-\
.
.
.
8cc/L
.
8dd/J
.
=25
4dd\
.
.
.
4r
.
.
.
4r
.
.
.
4dd\
.
.
.
=26
4.dd\
.
.
.
.
.
8ee-\
.
4ff\
.
.
.
4dd\
.
.
.
=27
4.dd\
.
.
.
.
.
8ee-\
.
4ff\
.
.
.
4ee-\
.
.
.
=28
!!linebreak:original
*clefG2
4b-\
.
.
.
8cc\L
.
8b-\J
.
4a/
.
.
.
8b-/L
.
8a/J
.
=29
4g/
.
.
.
4r
.
.
.
2r
.
.
.
.
.
.
.
=30
1r
.
.
.
.
.
.
.
.
.
.
.
.
.
.
.
=31
1r
.
.
.
.
.
.
.
.
.
.
.
.
.
.
.
==
*-
